X: 18267
T: Humours Of Portal, The
R: reel
M: 4/4
K: Amajor
|:c2 ec ABcA|B~E3 GABd|ceae fece|Baga bged|
cdec ABcA|B~E3 GABd|ceae fecA|1 BEGB Afed:|2 BEGB ABcd||
|:e~a3 fece|decA BAFA|EA A/A/A EAce|Baga bged|
ceae fece|decA BAFA|EA A/A/A EAce|1 fdBG ABcd:|2 fdBG Afed||

